keyboard-esc.svg

<svg  viewBox="0 0 24 24" fill="currentColor"><path  d="M1 7H7V9H3V11H7V13H3V15H7V17H1V7M11 7H15V9H11V11H13C14.11 11 15 11.9 15 13V15C15 16.11 14.11 17 13 17H9V15H13V13H11C9.9 13 9 12.11 9 11V9C9 7.9 9.9 7 11 7M19 7H21C22.11 7 23 7.9 23 9V10H21V9H19V15H21V14H23V15C23 16.11 22.11 17 21 17H19C17.9 17 17 16.11 17 15V9C17 7.9 17.9 7 19 7Z"/></svg>

<svg fill="currentColor" viewBox="0 0 24 24"><path d="M1 7h6v2H3v2h4v2H3v2h4v2H1zm10 0h4v2h-4v2h2a2 2 0 0 1 2 2v2c0 1.11-.89 2-2 2H9v-2h4v-2h-2a2 2 0 0 1-2-2V9c0-1.1.9-2 2-2m8 0h2a2 2 0 0 1 2 2v1h-2V9h-2v6h2v-1h2v1c0 1.11-.89 2-2 2h-2a2 2 0 0 1-2-2V9c0-1.1.9-2 2-2"/></svg>
